assets/icons/qvision/directions_run.svg

<svg width="24" height="24" viewBox="0 0 24 24" fill="none" xmlns="http://www.w3.org/2000/svg">
<g clip-path="url(#clip0_147_5208)">
<path d="M13.4899 5.47998C14.5899 5.47998 15.4899 4.57998 15.4899 3.47998C15.4899 2.37998 14.5899 1.47998 13.4899 1.47998C12.3899 1.47998 11.4899 2.37998 11.4899 3.47998C11.4899 4.57998 12.3899 5.47998 13.4899 5.47998ZM9.88989 19.38L10.8899 14.98L12.9899 16.98V22.98H14.9899V15.48L12.8899 13.48L13.4899 10.48C14.7899 11.98 16.7899 12.98 18.9899 12.98V10.98C17.0899 10.98 15.4899 9.97998 14.6899 8.57998L13.6899 6.97998C13.2899 6.37998 12.6899 5.97998 11.9899 5.97998C11.6899 5.97998 11.4899 6.07998 11.1899 6.07998L5.98989 8.27998V12.98H7.98989V9.57998L9.78989 8.87998L8.18989 16.98L3.28989 15.98L2.88989 17.98L9.88989 19.38Z" fill="#323232"/>
</g>
<defs>
<clipPath id="clip0_147_5208">
<rect width="24" height="24" fill="white"/>
</clipPath>
</defs>
</svg>

<svg xmlns="http://www.w3.org/2000/svg" height="24" viewBox="0 0 24 24" width="24"><path d="M0 0h24v24H0z" fill="none"/><path d="M13.49 5.48c1.1 0 2-.9 2-2s-.9-2-2-2-2 .9-2 2 .9 2 2 2zm-3.6 13.9l1-4.4 2.1 2v6h2v-7.5l-2.1-2 .6-3c1.3 1.5 3.3 2.5 5.5 2.5v-2c-1.9 0-3.5-1-4.3-2.4l-1-1.6c-.4-.6-1-1-1.7-1-.3 0-.5.1-.8.1l-5.2 2.2v4.7h2v-3.4l1.8-.7-1.6 8.1-4.9-1-.4 2 7 1.4z"/></svg>
